client/resources/iconsets/breeze/src/svg/16x16/icon_task_active.svg

<svg xmlns="http://www.w3.org/2000/svg" width="16" height="16" viewBox="0 0 16 16">
 <path style="fill:#6d6d70"
       d="M 8 0.00390625 C 6.8954 0.00390625 6 0.89933635 6 2.0039062 L 2 2.0039062 C 1 2.0039062 1 3.0039062 1 3.0039062 L 1 14.003906 C 1 15.003906 2 15.003906 2 15.003906 L 14 15.003906 C 14 15.003906 15 15.003906 15 14.003906 L 15 3.0039062 C 15 2.0039062 14 2.0039063 14 2.0039062 L 10 2.0039062 C 10 1.8658367 9.99495 1.7278564 9.96875 1.5976562 C 9.78226 0.68628635 8.9666 0.00390625 8 0.00390625 z M 8 1.0039062 C 8.41421 1.0039062 8.75444 1.2699862 8.90625 1.6289062 C 8.95685 1.7485462 9 1.8658364 9 2.0039062 C 9 2.5561863 8.55229 3.0039063 8 3.0039062 C 7.44771 3.0039062 7 2.5561863 7 2.0039062 C 7 1.4516265 7.44771 1.0039064 8 1.0039062 z M 8.0058594 3.0996094 A 0.90008998 0.90008998 0 0 1 8.8417969 3.6796875 L 9.3457031 5.0039062 L 11 5.0039062 L 11 4.0039062 L 13 4.0039062 L 13 13.003906 L 3 13.003906 L 3 4.0039062 L 5 4.0039062 L 5 5.0039062 L 6.6542969 5.0039062 L 7.1582031 3.6796875 A 0.90008998 0.90008998 0 0 1 8.0058594 3.0996094 z M 8 6.53125 L 7.6992188 7.3203125 A 0.90008998 0.90008998 0 0 1 6.8574219 7.9003906 L 6.3867188 7.9003906 L 6.8789062 8.3320312 A 0.90008998 0.90008998 0 0 1 7.1699219 9.1757812 L 7.0351562 9.8828125 L 7.4589844 9.5644531 A 0.90008998 0.90008998 0 0 1 8.5410156 9.5644531 L 8.9648438 9.8828125 L 8.8300781 9.1757812 A 0.90008998 0.90008998 0 0 1 9.1210938 8.3320312 L 9.6132812 7.9003906 L 9.1425781 7.9003906 A 0.90008998 0.90008998 0 0 1 8.3007812 7.3203125 L 8 6.53125 z "
       />
 <path style="fill:#6d6d70"
       d="M 8,3.9999998 6.8574219,6.9999997 4,6.9999997 6.2851562,9.0078123 5.7148438,12 8,10.285156 10.285156,12 9.7148438,9.0078123 12,6.9999997 l -2.8574219,0 z"
       />
</svg>

<svg xmlns="http://www.w3.org/2000/svg" width="16" height="16" fill="#6d6d70"><path d="M8 .004a2 2 0 0 0-2 2H2c-1 0-1 1-1 1v11c0 1 1 1 1 1h12s1 0 1-1v-11c0-1-1-1-1-1h-4c0-.138-.005-.276-.031-.406A2.01 2.01 0 0 0 8 .004zm0 1c.414 0 .754.266.906.625A.94.94 0 0 1 9 2.004a1 1 0 1 1-2 0 1 1 0 0 1 1-1zM8.006 3.1a.9.9 0 0 1 .836.58l.504 1.324H11v-1h2v9H3v-9h2v1h1.654l.504-1.324a.9.9 0 0 1 .848-.58zM8 6.531l-.301.789a.9.9 0 0 1-.842.58h-.471l.492.432a.9.9 0 0 1 .291.844l-.135.707.424-.318a.9.9 0 0 1 1.082 0l.424.318-.135-.707a.9.9 0 0 1 .291-.844l.492-.432h-.471a.9.9 0 0 1-.842-.58L8 6.531z"/><path d="M8 4L6.857 7H4l2.285 2.008L5.715 12 8 10.285 10.285 12l-.57-2.992L12 7H9.143z"/></svg>
